X:14
T:Margaret's Waltz
C:Pat Shaw ()
S:unknown. Pat Shaw is the name on the photocopy. 
I:speed 250
N:D.C. at end. 
M:3/4
K:D
F2 |: A,3B, DE | F4 F2 | ED B,2 D2 | E4 F2 | 
A,3 B, DE | F3 G A2 | F4 E2 |[1D4 F2:|[2D4 FG | 
A3B cA | d4 d2 | BAG2 B2 | A3G FE | 
D3 E FG | A4 A2 | FED2F2 | E4 FG | 
A3B cA | d3 c B2 | A2 G2 F2 | E4 F2 | 
A,3 B, DE | F3 G A2 | F4 E2 | D4||
